assets/backward-fill.svg

<svg xmlns="http://www.w3.org/2000/svg" fill="none" viewBox="0 0 28 28">
  <path fill="#2A2238" fill-rule="evenodd" d="M0 14C0 6.26801 6.26801 0 14 0c7.732 0 14 6.26801 14 14 0 7.732-6.268 14-14 14-7.73199 0-14-6.268-14-14Zm13.05-.6062 6.9-3.98373c.4667-.26943 1.05.06735 1.05.60623v7.9674c0 .5389-.5833.8757-1.05.6062l-6.9-3.9837c-.0173-.01-.034-.0205-.05-.0316v3.4091c0 .5389-.5833.8757-1.05.6062l-6.9-3.9837c-.46667-.2694-.46667-.943 0-1.2124l6.9-3.98373c.4667-.26943 1.05.06735 1.05.60623v3.4091c.016-.0111.0327-.0216.05-.0316Z" clip-rule="evenodd"/>
</svg>

<svg width="28" height="28" viewBox="0 0 28 28" fill="none" xmlns="http://www.w3.org/2000/svg">
<path fill-rule="evenodd" clip-rule="evenodd" d="M0 14C0 6.26801 6.26801 0 14 0C21.732 0 28 6.26801 28 14C28 21.732 21.732 28 14 28C6.26801 28 0 21.732 0 14ZM13.05 13.3938L19.95 9.41007C20.4167 9.14064 21 9.47742 21 10.0163V17.9837C21 18.5226 20.4167 18.8594 19.95 18.5899L13.05 14.6062C13.0327 14.5962 13.016 14.5857 13 14.5746V17.9837C13 18.5226 12.4167 18.8594 11.95 18.5899L5.05 14.6062C4.58333 14.3368 4.58333 13.6632 5.05 13.3938L11.95 9.41007C12.4167 9.14064 13 9.47742 13 10.0163V13.4254C13.016 13.4143 13.0327 13.4038 13.05 13.3938Z" fill="#2A2238"/>
</svg>
